X:1112
T:Miss Murray of Ochtertyre
P:Miss Murray of Ochtertyre
C:Bowie 1789
R:Reel (8x16)
B:RSCDS 11-12
Z:Anselm Lingnau <anselm@strathspey.org>
M:2/4
L:1/16
K:Bb
|:dc|"Bb"B3b Bdfd|"Eb"Bege "Bb"Bdfd|"Bb"B3b Bdfd|"Cm"c2dB "F"A2GF|
     "Bb"B3b Bdfd|"Eb"Bege "Bb"Bdfd|"Cm"ceg2 "Bb"Bdf2|"F7".A2.A2 "Bb"B2:|
|:de|"Bb"f6 g2|f6 "F7"x g2|"Bb"f2g2 f2g2|d6 g2|
     "Dm"f2e2 "D"d2c2|"Gm"B2 Bc B2B2|"Cm"c2cB "F7"c2d2|"Bb"B6:|
